ddp-workspace/projects/ddp-pancan/src/assets/images/twitter.svg

<?xml version="1.0" encoding="UTF-8"?>
<svg width="51px" height="41px" viewBox="0 0 51 41" version="1.1" xmlns="http://www.w3.org/2000/svg" xmlns:xlink="http://www.w3.org/1999/xlink">
    <title> Icons / Social / Twitter@1x</title>
    <defs>
        <path d="M58.1817374,16.3892525 C56.3615354,17.195798 54.4084848,17.7427879 52.3564444,17.9869899 C54.4517172,16.7322828 56.055596,14.7421414 56.8157576,12.3780202 C54.8503434,13.5399596 52.6808889,14.3836768 50.3692929,14.8410505 C48.5182222,12.8663434 45.8852525,11.6363636 42.9648485,11.6363636 C37.362101,11.6363636 32.8193131,16.1791515 32.8193131,21.7788283 C32.8193131,22.5730101 32.9089293,23.3486869 33.0820202,24.0904242 C24.6516364,23.6669899 17.1761616,19.6279596 12.1729293,13.4905051 C11.2983434,14.9862626 10.8008081,16.7291313 10.8008081,18.5895758 C10.8008081,22.1094949 12.5932121,25.2152727 15.3127273,27.0323232 C13.650101,26.9767273 12.0863838,26.5193535 10.7174141,25.7591111 L10.7174141,25.8858182 C10.7174141,30.7994343 14.2156768,34.9002828 18.8542222,35.8336162 C18.0043636,36.062303 17.108202,36.1890101 16.1810909,36.1890101 C15.5259798,36.1890101 14.8924444,36.1241212 14.2712727,36.0004848 C15.5629899,40.0333737 19.3085253,42.9660606 23.7462626,43.0464646 C20.275798,45.7659798 15.8998788,47.3822222 11.1469899,47.3822222 C10.3280808,47.3822222 9.52145455,47.3327677 8.72727273,47.2431515 C13.2175354,50.1264646 18.5483636,51.807596 24.2778182,51.807596 C42.9402828,51.807596 53.1414949,36.3497374 53.1414949,22.9439192 L53.1074747,21.6305455 C55.1006869,20.2088889 56.8250505,18.4227071 58.1817374,16.3892525 Z" id="path-1"></path>
    </defs>
    <g id="Main-Pages" stroke="none" stroke-width="1" fill="none" fill-rule="evenodd">
        <g id="Homepage" transform="translate(-947.000000, -3371.000000)">
            <g id="-Icons-/-Social-/-Twitter" transform="translate(939.000000, 3360.000000)">
                <mask id="mask-2" fill="white">
                    <use xlink:href="#path-1"></use>
                </mask>
                <use id="Shape" fill="#6236FF" xlink:href="#path-1"></use>
            </g>
        </g>
    </g>
</svg>

<?xml version="1.0" encoding="UTF-8"?>
<svg version="1.1" viewBox="0 0 51 41" xmlns="http://www.w3.org/2000/svg" xmlns:xlink="http://www.w3.org/1999/xlink">
<title>Icons / Social / Twitter@1x</title>
<defs>
<path id="a" d="m58.182 16.389c-1.8202 0.80655-3.7733 1.3535-5.8253 1.5977 2.0953-1.2547 3.6992-3.2448 4.4593-5.609-1.9654 1.1619-4.1349 2.0057-6.4465 2.463-1.8511-1.9747-4.484-3.2047-7.4044-3.2047-5.6027 0-10.146 4.5428-10.146 10.142 0 0.79418 0.089616 1.5699 0.26271 2.3116-8.4304-0.42343-15.906-4.4625-20.909-10.6-0.87459 1.4958-1.3721 3.2386-1.3721 5.0991 0 3.5199 1.7924 6.6257 4.5119 8.4427-1.6626-0.055596-3.2263-0.51297-4.5953-1.2732v0.12671c0 4.9136 3.4983 9.0145 8.1368 9.9478-0.84986 0.22869-1.746 0.35539-2.6731 0.35539-0.65511 0-1.2886-0.064889-1.9098-0.18853 1.2917 4.0329 5.0373 6.9656 9.475 7.046-3.4705 2.7195-7.8464 4.3358-12.599 4.3358-0.81891 0-1.6255-0.049454-2.4197-0.13907 4.4903 2.8833 9.8211 4.5644 15.551 4.5644 18.662 0 28.864-15.458 28.864-28.864l-0.03402-1.3134c1.9932-1.4217 3.7176-3.2078 5.0743-5.2413z"/>
</defs>
<g fill="none" fill-rule="evenodd">
<g transform="translate(-947 -3371)">
<g transform="translate(939 3360)">
<mask fill="white">
<use xlink:href="#a"/>
</mask>
<use fill="#6236FF" xlink:href="#a"/>
</g>
</g>
</g>
</svg>
